X: 26289
T: Memories In My Shoes
R: jig
M: 6/8
K: Dmajor
de|:fdB BAF|EDB, B,A,F,|B,DE F/G/AF|EFA Bde|
fdB BAF|EDB, B,A,F,|B,DE F/G/AF|1 EDB, Dde:|2 EDB, D3||
A,DA, DFA|BAF EDB,|DFA Bde|f/g/fc d2e|
fdB BAF|EDB, B,A,F,|B,DE F/G/AF|1 EDB, D2B,:|2 EDB, D||

